_includes/icons/color-alarm-clock.svg

<svg fill="#666" height="50" viewBox="0 0 48 48" width="50" xmlns="http://www.w3.org/2000/svg"><path d="m38.5 44.601563-4-4 2.101563-2.101563 4 4c.597656.601563.597656 1.5 0 2.101563-.5.5-1.5.5-2.101563 0z" fill="#37474f"/><path d="m9.5 44.601563 4-4-2.101562-2.101563-4 4c-.597657.601563-.597657 1.5 0 2.101563.5.5 1.5.5 2.101562 0z" fill="#37474f"/><path d="m44 24c0 11.046875-8.953125 20-20 20s-20-8.953125-20-20 8.953125-20 20-20 20 8.953125 20 20z" fill="#c62828"/><path d="m40 24c0 8.835938-7.164062 16-16 16-8.835937 0-16-7.164062-16-16 0-8.835937 7.164063-16 16-16 8.835938 0 16 7.164063 16 16z" fill="#eee"/><path d="m15.097656 33.476563-.566406-.566407 9.191406-9.191406.566407.5625z" fill="#e53935"/><path d="m23 11h2v13h-2z"/><path d="m31.28125 29.652344-1.625 1.628906-6.507812-6.507812 1.628906-1.625z"/><path d="m26 24c0 1.105469-.894531 2-2 2s-2-.894531-2-2 .894531-2 2-2 2 .894531 2 2z"/><path d="m25 24c0 .550781-.449219 1-1 1s-1-.449219-1-1 .449219-1 1-1 1 .449219 1 1z" fill="#c62828"/><g fill="#37474f"><path d="m22 1h4v3h-4z"/><path d="m44.398438 16.199219c2.5-3.5 2.101562-8.398438-1-11.5-3.097657-3.097656-8-3.5-11.5-1z"/><path d="m3.601563 16.199219c-2.5-3.5-2.101563-8.398438 1-11.5 3.097656-3.097656 8-3.5 11.5-1z"/></g></svg>

<svg xmlns="http://www.w3.org/2000/svg" viewBox="0 0 48 48" width="50" height="50" fill="#666"><path d="M 38.5 44.601563 L 34.5 40.601563 L 36.601563 38.5 L 40.601563 42.5 C 41.199219 43.101563 41.199219 44 40.601563 44.601563 C 40.101563 45.101563 39.101563 45.101563 38.5 44.601563 Z" fill="#37474f"/><path d="M 9.5 44.601563 L 13.5 40.601563 L 11.398438 38.5 L 7.398438 42.5 C 6.800781 43.101563 6.800781 44 7.398438 44.601563 C 7.898438 45.101563 8.898438 45.101563 9.5 44.601563 Z" fill="#37474f"/><path d="M 44 24 C 44 35.046875 35.046875 44 24 44 C 12.953125 44 4 35.046875 4 24 C 4 12.953125 12.953125 4 24 4 C 35.046875 4 44 12.953125 44 24 Z" fill="#c62828"/><path d="M 40 24 C 40 32.835938 32.835938 40 24 40 C 15.164063 40 8 32.835938 8 24 C 8 15.164063 15.164063 8 24 8 C 32.835938 8 40 15.164063 40 24 Z" fill="#eee"/><path d="M 15.097656 33.476563 L 14.53125 32.910156 L 23.722656 23.71875 L 24.289063 24.28125 Z" fill="#e53935"/><path d="M 23 11 L 25 11 L 25 24 L 23 24 Z"/><path d="M 31.28125 29.652344 L 29.65625 31.28125 L 23.148438 24.773438 L 24.777344 23.148438 Z"/><path d="M 26 24 C 26 25.105469 25.105469 26 24 26 C 22.894531 26 22 25.105469 22 24 C 22 22.894531 22.894531 22 24 22 C 25.105469 22 26 22.894531 26 24 Z"/><path d="M 25 24 C 25 24.550781 24.550781 25 24 25 C 23.449219 25 23 24.550781 23 24 C 23 23.449219 23.449219 23 24 23 C 24.550781 23 25 23.449219 25 24 Z" fill="#c62828"/><path d="M 22 1 L 26 1 L 26 4 L 22 4 Z" fill="#37474f"/><path d="M 44.398438 16.199219 C 46.898438 12.699219 46.5 7.800781 43.398438 4.699219 C 40.300781 1.601563 35.398438 1.199219 31.898438 3.699219 Z" fill="#37474f"/><path d="M 3.601563 16.199219 C 1.101563 12.699219 1.5 7.800781 4.601563 4.699219 C 7.699219 1.601563 12.601563 1.199219 16.101563 3.699219 Z" fill="#37474f"/></svg>
